!!!OTL: K&auml;lberkauf (40), S. 130
!!!id: T0167
**kern
*clefG2
*k[f#]
*G:
{8d
=1
8g
8g
8g
16g
16g
=2
8g
8b
8g
8g}
=3
{8a
8a
8a
8g
=4
8f#
8e
8d
8d}
=5
{8a
8a
8a
8a
=6
8b
8a
4g}
=7
{4.dd
8cc
=8
8.b
16b
8b
8b
=9
8b
8dd
8dd}
=10
{8dd
=11
8.dd
16cc
8cc
8cc
=12
4ee
8dd}
=13
{8b
=14
8.b
16b
8b
8b
=15
8b
8dd
4dd}
=16
{8.dd
16cc
8b
8b
=17
8dd
8cc
8b}
==
*-
!!!minrhy: 16
!!!meters: 2/4 ]  ZZ[7
!!!cut: K&auml;lberkauf (40), S. 130
!!!reg: Luxemburg
!!!trd: Singendes Volk, Esch-Alzette 1937 posth.
!!!rhy1: X_  X_X_X_XX  X_X_X_X_
!!!rhy2: X_X_X_X_  X_X_X_X_
!!!key: T0167  16  G 2/4 ]  ZZ[7
!!!mod: HEPTATONIK IONISCH]  AMBITUS[9
!!!kad: 1-515553
!!!akz: 11_2-7_23_533_56_33_55_
!!!fot: 'a__b__c__bs"d__as"e__
!!!for: 'a__b__bw_c__d__e__ev_
!!!fok: '^a_\__\__V__-__/__\__
!! PHRAS[GEMISCHTTAKTIG]
!!!fkt: Liebeslieder
!!!bem: Rammeldingen, J.P. Gloden, 26.12.1932
!! THILL, Mathias:
!! PR[15] 2K[8] 2G[22] 3K[5] 3G[3] 4A[7] 4Ü[0] 5A[0] 6K[0] 6G[0]
!! 7K[0] 7G[0] 8A[0] MEHR[0] SI[45] ABS[60] SR[30] SP[15]
!! ST[16] 2k[7] 2g[20] 3k[10] 3g[2] 4d[0] 4ü[0] 5d[0] 6k[0] 6g[2]
!! 7k[0] 7g[0] 8d[0] mehr[0] si[40] dm[+5] sr[27] sp[13]
!! 1F[22] 2F[61] 3F[5] 4F[0] LF[0] 2P[13] 3P[0] 4P[0] TRI[0] DF[4] AB[64]
!! TF[0] U3K[0] U3[0] U4[0] U4Ü[0] U5[3] U6K[0] U6[0] U7K[0] U7[0]
!! N1[5] N2K[0] N2[8] N3K[0] N3[18] N4[25] N4Ü[0] N5[30] N6K[0] N6[10]
!!!n7k: 0] N7[0] O1[2] O2K[0] O2[0] O3K[0] O3[0] HÖ[0
!!!RNB: symbol: &auml;      = a umlaut  (UTF-8: Å„)
